X:1
T:The Answering Time Will Come
T:James Milton Black
T:The Answering Time Will Come
T:Public Domain
T:Public Domain
C:James Milton Black
Z:Public Domain
%%score ( 1 2 ) ( 3 4 )
L:1/8
M:3/4
K:G
V:1 treble 
V:2 treble 
V:3 bass 
V:4 bass 
V:1
 [DB]2 [B,G]2 [CA]2 | [DB]4 [DB]2 | [Ec]4 [Ec]2 | [DB]4 [DB]2 | [CA]2 [CG]2 [CE]2 | [B,D]4 [DB]2 | %6
w: 1.~Ask what thou|wilt, be-|liev- ing|heart, The|an- swer- ing|time will|
w: 2.~Ask in the|name of|Christ thy|Lord, The|an- swer- ing|time will|
w: 3.~God’s Word is|sure; it|can- not|fail, The|an- swer- ing|time will|
w: 4.~God will not|mock be-|liev- ing|prayer, The|an- swer- ing|time will|
 [DA]6- | [DA]4 z2 | [DB]2 [B,G]2 [CA]2 | [DB]4 [DB]2 | [=Fd]4 [Fd]2 | [Ec]4 [Ec]2 | %12
w: come;||Pray and be-|lieve— that|is thy|part, The|
w: come;||Rest on the|prom- ise|of His|Word, The|
w: come;||The prayer of|faith shall|yet pre-|vail, The|
w: come;||He knows the|bur- den|thou dost|bear, The|
 [CE]2 [EG]2 [Ec]2 | [DB]4 [CA]2 | [B,G]6- | [B,G]4 ||"^Refrain" [DG]2 | [DG]2 [DA]2 [GB]2 | %18
w: an- swer- ing|time will|come.||||
w: an- swer- ing|time will|come.||The|an- swer- ing|
w: an- swer- ing|time will|come.||||
w: an- swer- ing|time will|come.||||
 [Gd]4 [DG]2 | [DF]6- | [DF]4 [CE]2 | D2 [Dc]2 [Fc]2 | [Fc]4 [Ac]2 | [GB]6- | [GB]4 [B,D]2 | %25
w: |||||||
w: time will|come;|* The|an- swer- ing|will come.|Tho’|* dark|
w: |||||||
w: |||||||
 (D2 G2) [DB]2 | [Gd]4 [GB]2 | [Gc]4 [Gc]2 | [Ge]4 [Ge]2 | [Gd]2 G2 [Gc]2 | [GB]4 [FA]2 | [DG]6- | %32
w: |||||||
w: the * way,|trust and|pray, The|an- swer-|ing time will|||
w: |||||||
w: |||||||
 [DG]6 |] %33
w: |
w: |
w: |
w: |
V:2
 x6 | x6 | x6 | x6 | x6 | x6 | x6 | x6 | x6 | x6 | x6 | x6 | x6 | x6 | x6 | x4 || x2 | x6 | x6 | %19
w: |||||||||||||||||||
w: |||||||||||||||||||
 x6 | x6 | D2 x4 | x6 | x6 | x6 | B,4 x2 | x6 | x6 | x6 | x2 G2 x2 | x6 | x6 | x6 |] %33
w: ||||||||||||||
w: ||time||||still||||come.||||
V:3
 G,2 G,2 G,2 | G,4 G,2 | [C,G,]4 [C,G,]2 | [G,,G,]4 [G,,G,]2 | [C,E,]2 [C,E,]2 [C,G,]2 | %5
w: ~ ~ ~|~ ~|~ ~|~ ~|~ ~ ~|
 [G,,G,]4 [G,,G,]2 | [D,F,]6- | [D,F,]4 z2 | [G,,G,]2 [G,,G,]2 [G,,G,]2 | [G,,G,]4 [G,,G,]2 | %10
w: ~ ~|~||~ ~ ~|~ ~|
 [B,,G,]4 [B,,G,]2 | [C,G,]4 [C,G,]2 | [C,G,]2 [C,C]2 [C,G,]2 | [D,G,]4 [D,F,]2 | [G,,G,]6- | %15
w: ~ ~|~ ~|~ ~ ~|~ ~|~|
 [G,,G,]4 || [G,B,]2 | [G,B,]2 [G,C]2 [G,D]2 | [G,B,]4 [G,B,]2 | [D,A,]4 [D,A,]2 | %20
w: |~|~ will come,|~ ~|~ ~|
 [D,A,]4 [D,G,]2 | [D,F,]2 [F,A,]2 [A,D]2 | [D,D]4 [D,D]2 | [G,D]4 [G,D]2 | [G,D]4 G,2 | G,4 G,2 | %26
w: ~ ~|~ will come,|||||
 [G,B,]4 [=F,D]2 | [E,C]4 [E,C]2 | [C,C]4 [C,C]2 | [D,B,]2 [D,B,]2 [D,E]2 | [D,D]4 [D,C]2 | %31
w: |||||
 [G,,G,B,]6- | [G,,G,B,]6 |] %33
w: ||
V:4
 G,2 G,2 G,2 | G,4 G,2 | x6 | x6 | x6 | x6 | x6 | x6 | x6 | x6 | x6 | x6 | x6 | x6 | x6 | x4 || %16
w: ~ ~ ~|~ ~|||||||||||||||
 x2 | x6 | x6 | x6 | x6 | x6 | x6 | x6 | x4 G,2 | G,4 G,2 | x6 | x6 | x6 | x6 | x6 | x6 | x6 |] %33
w: |||||||||||||||||

